X:5
T:Skottenes hjemve*
T:Vals i form etter Thorvald Trondsgrd
R:Waltz
S:Folldal Spellmannslag
N: rviser -  terminer
N:http://home.no.net/janwes/folldal/
D:slift (29) & Chants et danses de Norvge / Auvidis
O:Norge - Norway - Norvge
A:Hedmark
Z:transcription (d'oreille) : <anamnese@laposte.net>
M:3/4
L:1/8
Q:1/4=85
K:C
 A A2^c d2 | ef ag f2 | ff ed ea | ^cd Bc A2 |
 G A2^c d2 | ef ag f2 | ff ed ea | ^cd2 (3e/d/c/ d2 |
